svgs/regular/face-disappointed.svg

<svg xmlns="http://www.w3.org/2000/svg" viewBox="0 0 512 512"><!--! Font Awesome Pro 6.4.2 by @fontawesome - https://fontawesome.com License - https://fontawesome.com/license (Commercial License) Copyright 2023 Fonticons, Inc. --><path d="M464 256A208 208 0 1 0 48 256a208 208 0 1 0 416 0zM0 256a256 256 0 1 1 512 0A256 256 0 1 1 0 256zM294.5 408.4c-7.4-7.9-20-16.4-38.5-16.4s-31.1 8.5-38.5 16.4c-9 9.7-24.2 10.2-33.9 1.2s-10.2-24.2-1.2-33.9C196.7 360.3 221.4 344 256 344s59.3 16.3 73.5 31.6c9 9.7 8.5 24.9-1.2 33.9s-24.9 8.5-33.9-1.2zM211.3 267.3l-7.4 7.4c-23.6 23.6-53.9 39.2-86.8 44.7l-2.5 .4c-8.7 1.5-17-4.4-18.4-13.2s4.4-17 13.2-18.4l2.5-.4c26.3-4.4 50.6-16.9 69.5-35.7l7.4-7.4c6.2-6.2 16.4-6.2 22.6 0s6.2 16.4 0 22.6zm89.4 0c-6.2-6.2-6.2-16.4 0-22.6s16.4-6.2 22.6 0l7.4 7.4c18.9 18.9 43.2 31.4 69.5 35.7l2.5 .4c8.7 1.5 14.6 9.7 13.2 18.4s-9.7 14.6-18.4 13.2l-2.5-.4c-32.9-5.5-63.3-21.1-86.8-44.7l-7.4-7.4z"/></svg>

<svg xmlns="http://www.w3.org/2000/svg" viewBox="0 0 512 512"><!--! Font Awesome Pro 6.1.1 by @fontawesome - https://fontawesome.com License - https://fontawesome.com/license (Commercial License) Copyright 2022 Fonticons, Inc. --><path d="M256 392C237.6 392 224.9 400.5 217.5 408.4C208.5 418.1 193.3 418.6 183.6 409.5C173.9 400.5 173.4 385.3 182.5 375.6C196.7 360.3 221.4 344 256 344C290.6 344 315.3 360.3 329.5 375.6C338.6 385.3 338.1 400.5 328.4 409.5C318.7 418.6 303.5 418.1 294.5 408.4C287.1 400.5 274.4 392 256 392zM211.3 267.3L203.9 274.7C180.4 298.3 150 313.9 117.1 319.4L114.6 319.8C105.9 321.2 97.67 315.3 96.22 306.6C94.76 297.9 100.7 289.7 109.4 288.2L111.9 287.8C138.2 283.4 162.5 270.9 181.3 252.1L188.7 244.7C194.9 238.4 205.1 238.4 211.3 244.7C217.6 250.9 217.6 261.1 211.3 267.3V267.3zM300.7 267.3C294.4 261.1 294.4 250.9 300.7 244.7C306.9 238.4 317.1 238.4 323.3 244.7L330.7 252.1C349.5 270.9 373.8 283.4 400.2 287.8L402.6 288.2C411.3 289.7 417.2 297.9 415.8 306.6C414.3 315.3 406.1 321.2 397.4 319.8L394.9 319.4C361.1 313.9 331.6 298.3 308.1 274.7L300.7 267.3zM512 256C512 397.4 397.4 512 256 512C114.6 512 0 397.4 0 256C0 114.6 114.6 0 256 0C397.4 0 512 114.6 512 256zM256 48C141.1 48 48 141.1 48 256C48 370.9 141.1 464 256 464C370.9 464 464 370.9 464 256C464 141.1 370.9 48 256 48z"/></svg>
